X: 93
T: A Wind from the North
C: Teton Sioux band 1911-1914
N: Derived from sioux093.krn
O: South Dakota, U.S.A.
N: Teton Sioux Music by Frances Densmore, 1918
Z: transcribed to **kern format by Craig Sapp
L: 1/8
M: 3/4
Q: 1/4=58
K: A clef=bass
%%linebreak <none>
E2E> E E3/ E/ [I:setbarnb 1]||  
[M:2/4]E2C2 | 
E2(E C) | 
C> CC2 ||  
[M:3/4]C2C> C (3(E C) E ||  
[M:2/4](E B,)A,2 | 
A,2A,3/ F,/ | 
(E,4- | 
E,4- | 
E,2C,2) ||  
[M:3/4]E,2E,> E, F,3/ F,/ ||  
[M:2/4]F,2E,3/ E,/ | 
F,2(F,3/ E,/) | 
(E, C,)C,2 | 
C,4- | 
C,4- | 
C,7/E/ | 
(3(E C) C C3/ E/ | 
E C/ C/C2 | 
C B,/ A,/A,2 ||  
[M:3/4]C2C> C (C/ B,) C/ ||  
[M:2/4](C< B,)A,2 | 
A,2A,3/ F,/ | 
(E,4- | 
E,4- | 
E,2C,2) ||  
[M:3/4]E,2F,> F, F,3/ F,/ ||  
[M:2/4]F,2E,3/ E,/ | 
F,2(F,3/ E,/) | 
(E, C,)C,2 | 
C,4 |]  



